src/LUT/04_Vintage_LUTs_Magenta Shadows.cube
LUT_3D_SIZE 16
0.092560 -0.073767 -0.072604
0.108174 -0.073767 -0.072604
0.172456 -0.073767 -0.072604
0.225569 -0.073767 -0.072604
0.283599 -0.073767 -0.072604
0.348579 -0.073767 -0.072604
0.415112 -0.073767 -0.072604
0.486666 -0.073767 -0.072604
0.560991 -0.073767 -0.072604
0.632689 -0.073767 -0.072604
0.700631 -0.073767 -0.072604
0.764225 -0.073767 -0.072604
0.821342 -0.073767 -0.072604
0.874266 -0.073767 -0.072604
0.917808 -0.073767 -0.072604
0.947820 -0.073767 -0.072604
0.092560 -0.039077 -0.072604
0.108174 -0.039077 -0.072604
0.172456 -0.060670 -0.072604
0.225569 -0.060195 -0.072604
0.283599 -0.057155 -0.072604
0.348579 -0.052976 -0.072604
0.415112 -0.048604 -0.072604
0.486666 -0.043374 -0.072604
0.560991 -0.037455 -0.072604
0.632689 -0.032303 -0.072604
0.700631 -0.028545 -0.072604
0.764225 -0.026829 -0.072604
0.821342 -0.027566 -0.072604
0.874266 -0.029772 -0.072604
0.917808 -0.033628 -0.072604
0.947820 -0.038840 -0.072604
0.092560 0.042337 -0.072604
0.100505 0.042337 -0.072604
0.173275 0.042337 -0.072604
0.225569 0.043113 -0.072604
0.283599 0.052241 -0.072604
0.348579 0.060946 -0.072604
0.415112 0.069260 -0.072604
0.486666 0.076799 -0.072604
0.560991 0.083443 -0.072604
0.632689 0.087911 -0.072604
0.700631 0.090010 -0.072604
0.764225 0.090749 -0.072604
0.821342 0.091597 -0.072604
0.874266 0.089526 -0.072604
0.917808 0.086865 -0.072604
0.947820 0.082047 -0.072604
0.092560 0.099728 -0.072604
0.100742 0.099728 -0.072604
0.174893 0.099728 -0.072604
0.226373 0.099728 -0.072604
0.283599 0.110932 -0.072604
0.348579 0.124501 -0.072604
0.415112 0.135911 -0.072604
0.486666 0.146598 -0.072604
0.560991 0.155951 -0.072604
0.632689 0.162203 -0.072604
0.700631 0.166519 -0.072604
0.764225 0.167010 -0.072604
0.821342 0.167469 -0.072604
0.874266 0.165495 -0.072604
0.917808 0.160733 -0.072604
0.947820 0.153966 -0.072604
0.092560 0.167755 -0.072604
0.102130 0.167755 -0.072604
0.183067 0.167755 -0.072604
0.236177 0.167755 -0.072604
0.284424 0.168136 -0.072604
0.348579 0.184807 -0.072604
0.415112 0.198884 -0.072604
0.486666 0.212679 -0.072604
0.560991 0.224778 -0.072604
0.632689 0.232899 -0.072604
0.700631 0.237261 -0.072604
0.764225 0.239618 -0.072604
0.821342 0.238673 -0.072604
0.874266 0.236642 -0.072604
0.917808 0.230988 -0.072604
0.947820 0.222233 -0.072604
0.092560 0.241805 -0.072604
0.103769 0.241805 -0.072604
0.192062 0.241805 -0.072604
0.246801 0.241805 -0.072604
0.297492 0.242175 -0.072604
0.348579 0.242831 -0.072604
0.415112 0.260432 -0.072604
0.486666 0.277408 -0.072604
0.560991 0.292377 -0.072604
0.632689 0.302402 -0.072604
0.700631 0.308703 -0.072604
0.764225 0.310090 -0.072604
0.821342 0.309663 -0.072604
0.874266 0.306523 -0.072604
0.917808 0.300057 -0.072604
0.947820 0.289240 -0.072604
0.092560 0.321330 -0.072604
0.105435 0.321330 -0.072604
0.199406 0.321330 -0.072604
0.257425 0.321330 -0.072604
0.310565 0.321330 -0.072604
0.363290 0.321437 -0.072604
0.415112 0.321330 -0.072604
0.486666 0.341618 -0.072604
0.560991 0.359443 -0.072604
0.632689 0.371434 -0.072604
0.700631 0.378664 -0.072604
0.764225 0.381022 -0.072604
0.821342 0.380138 -0.072604
0.874266 0.376830 -0.072604
0.917808 0.368605 -0.072604
0.947820 0.355682 -0.072604
0.092560 0.405425 -0.072604
0.107052 0.405425 -0.072604
0.206772 0.405425 -0.072604
0.266409 0.405425 -0.072604
0.322074 0.405425 -0.072604
0.378023 0.405425 -0.072604
0.432387 0.405425 -0.072604
0.486666 0.405425 -0.072604
0.560991 0.426193 -0.072604
0.632689 0.440160 -0.072604
0.700631 0.448300 -0.072604
0.764225 0.451673 -0.072604
0.821342 0.450341 -0.072604
0.874266 0.445865 -0.072604
0.917808 0.436868 -0.072604
0.947820 0.421821 -0.072604
0.092560 0.492846 -0.072604
0.108555 0.492846 -0.072604
0.212492 0.492846 -0.072604
0.273769 0.492846 -0.072604
0.333142 0.492846 -0.072604
0.389952 0.492846 -0.072604
0.447518 0.492846 -0.072604
0.504291 0.492846 -0.072604
0.560991 0.492846 -0.072604
0.632689 0.508734 -0.072604
0.700631 0.517825 -0.072604
0.764225 0.521223 -0.072604
0.821342 0.519476 -0.072604
0.874266 0.514766 -0.072604
0.917808 0.505051 -0.072604
0.947820 0.487869 -0.072604
0.092560 0.577238 -0.072604
0.109592 0.577238 -0.072604
0.216575 0.577238 -0.072604
0.279475 0.577238 -0.072604
0.339216 0.577238 -0.072604
0.399338 0.577238 -0.072604
0.457697 0.577238 -0.072604
0.516147 0.577238 -0.072604
0.574470 0.577238 -0.072604
0.632689 0.577238 -0.072604
0.700292 0.587807 -0.072604
0.764225 0.591634 -0.072604
0.821342 0.589418 -0.072604
0.874266 0.584548 -0.072604
0.917808 0.573073 -0.072604
0.947820 0.553782 -0.072604
0.092560 0.657144 -0.072604
0.110215 0.657144 -0.072604
0.218210 0.657144 -0.072604
0.282750 0.657144 -0.072604
0.343492 0.657144 -0.072604
0.403694 0.657144 -0.072604
0.463604 0.657144 -0.072604
0.522983 0.657144 -0.072604
0.582272 0.657144 -0.072604
0.641476 0.657144 -0.072604
0.700787 0.657144 -0.072604
0.764074 0.661951 -0.072604
0.821342 0.660202 -0.072604
0.874266 0.653269 -0.072604
0.917808 0.641029 -0.072604
0.947820 0.619623 -0.072604
0.092560 0.731610 -0.072604
0.110454 0.731610 -0.072604
0.219019 0.731610 -0.072604
0.283569 0.731610 -0.072604
0.344951 0.731610 -0.072604
0.405534 0.731610 -0.072604
0.465881 0.731610 -0.072604
0.525644 0.731610 -0.072604
0.585331 0.731610 -0.072604
0.644911 0.731610 -0.072604
0.704635 0.731610 -0.072604
0.764149 0.732525 -0.072604
0.821342 0.730121 -0.072604
0.874266 0.722877 -0.072604
0.917808 0.708993 -0.072604
0.947820 0.685435 -0.072604
0.092560 0.799856 -0.072604
0.110382 0.799856 -0.072604
0.219019 0.799856 -0.072604
0.283569 0.799856 -0.072604
0.345078 0.799856 -0.072604
0.405554 0.799856 -0.072604
0.465171 0.799856 -0.072604
0.524866 0.799856 -0.072604
0.584399 0.799856 -0.072604
0.643924 0.799856 -0.072604
0.702879 0.799856 -0.072604
0.762314 0.799856 -0.072604
0.822166 0.799839 -0.072604
0.874266 0.791569 -0.072604
0.917808 0.776743 -0.072604
0.947820 0.751215 -0.072604
0.092560 0.860806 -0.072604
0.110007 0.860806 -0.072604
0.217381 0.860806 -0.072604
0.281120 0.860806 -0.072604
0.343175 0.860806 -0.072604
0.402304 0.860806 -0.072604
0.461649 0.860806 -0.072604
0.520723 0.860806 -0.072604
0.579752 0.860806 -0.072604
0.638649 0.860806 -0.072604
0.697461 0.860806 -0.072604
0.756268 0.860806 -0.072604
0.814872 0.861072 -0.072604
0.874266 0.861112 -0.072604
0.917808 0.844701 -0.072604
0.947820 0.816971 -0.072604
0.092560 0.912510 -0.072604
0.109346 0.912510 -0.072604
0.214938 0.912510 -0.072604
0.277852 0.912510 -0.072604
0.338497 0.912510 -0.072604
0.396543 0.912510 -0.072604
0.455337 0.912510 -0.072604
0.513386 0.912510 -0.072604
0.571362 0.912510 -0.072604
0.629155 0.912510 -0.072604
0.686531 0.912510 -0.072604
0.744422 0.912510 -0.072604
0.802571 0.912510 -0.072604
0.860347 0.912406 -0.072604
0.917808 0.912510 -0.072604
0.947820 0.882636 -0.072604
0.092560 0.947818 -0.072604
0.108232 0.947818 -0.072604
0.210850 0.947818 -0.072604
0.272131 0.947818 -0.072604
0.330771 0.947818 -0.072604
0.387816 0.947818 -0.072604
0.444331 0.947818 -0.072604
0.500595 0.947818 -0.072604
0.556737 0.947818 -0.072604
0.612787 0.947818 -0.072604
0.668655 0.947818 -0.072604
0.724650 0.947818 -0.072604
0.780487 0.947818 -0.072604
0.836693 0.947818 -0.072604
0.892381 0.947818 -0.072604
0.947820 0.947818 -0.072604
0.092560 -0.073767 -0.036124
0.108174 -0.073767 -0.036124
0.172456 -0.073767 -0.059133
0.225569 -0.073767 -0.058638
0.283599 -0.073767 -0.055475
0.348579 -0.073767 -0.051104
0.415112 -0.073767 -0.046473
0.486666 -0.073767 -0.040856
0.560991 -0.073767 -0.034303
0.632689 -0.073767 -0.028310
0.700631 -0.073767 -0.023620
0.764225 -0.073767 -0.021322
0.821342 -0.073767 -0.022324
0.874266 -0.073767 -0.025193
0.917808 -0.073767 -0.029888
0.947820 -0.073767 -0.035859
0.092560 -0.039077 -0.036124
0.108174 -0.039077 -0.036124
0.172456 -0.039077 -0.036124
0.225569 -0.039077 -0.036124
0.283599 -0.039077 -0.036124
0.348579 -0.039077 -0.036124
0.415112 -0.039077 -0.036124
0.486666 -0.039077 -0.036124
0.560991 -0.039077 -0.036124
0.632689 -0.039077 -0.036124
0.700631 -0.039077 -0.036124
0.764225 -0.039077 -0.036124
0.821342 -0.039077 -0.036124
0.874266 -0.039077 -0.036124
0.917808 -0.039077 -0.036124
0.947820 -0.039077 -0.036124
0.092560 0.042337 -0.059037
0.108174 0.042337 -0.036124
0.173275 0.042337 -0.036124
0.225569 0.049442 -0.036124
0.283599 0.056928 -0.036124
0.348579 0.064401 -0.036124
0.415112 0.071622 -0.036124
0.486666 0.077725 -0.036124
0.560991 0.083144 -0.036124
0.632689 0.086816 -0.036124
0.700631 0.089703 -0.036124
0.764225 0.090577 -0.036124
0.821342 0.089695 -0.036124
0.874266 0.088528 -0.036124
0.917808 0.085924 -0.036124
0.947820 0.081997 -0.036124
0.092560 0.099728 -0.058526
0.108174 0.099728 -0.036124
0.180610 0.099728 -0.036124
0.226373 0.099728 -0.036124
0.283599 0.112997 -0.036124
0.348579 0.126881 -0.036124
0.415112 0.137023 -0.036124
0.486666 0.147058 -0.036124
0.560991 0.155785 -0.036124
0.632689 0.161647 -0.036124
0.700631 0.165408 -0.036124
0.764225 0.166436 -0.036124
0.821342 0.166016 -0.036124
0.874266 0.164534 -0.036124
0.917808 0.160255 -0.036124
0.947820 0.153968 -0.036124
0.092560 0.167755 -0.055399
0.108174 0.167755 -0.036124
0.188785 0.167755 -0.036124
0.237814 0.167755 -0.036124
0.284424 0.167732 -0.036124
0.348579 0.185054 -0.036124
0.415112 0.199450 -0.036124
0.486666 0.212913 -0.036124
0.560991 0.224692 -0.036124
0.632689 0.232551 -0.036124
0.700631 0.237180 -0.036124
0.764225 0.239274 -0.036124
0.821342 0.238364 -0.036124
0.874266 0.235672 -0.036124
0.917808 0.230678 -0.036124
0.947820 0.222208 -0.036124
0.092560 0.241805 -0.051309
0.108174 0.241805 -0.036124
0.195312 0.241805 -0.036124
0.248435 0.241805 -0.036124
0.298288 0.242405 -0.036124
0.348579 0.242962 -0.036124
0.415112 0.260661 -0.036124
0.486666 0.277561 -0.036124
0.560991 0.292316 -0.036124
0.632689 0.302164 -0.036124
0.700631 0.308678 -0.036124
0.764225 0.309866 -0.036124
0.821342 0.309465 -0.036124
0.874266 0.306509 -0.036124
0.917808 0.299854 -0.036124
0.947820 0.289218 -0.036124
0.092560 0.321330 -0.046473
0.108174 0.321330 -0.036124
0.201865 0.321330 -0.036124
0.258242 0.321330 -0.036124
0.311360 0.321330 -0.036124
0.363290 0.321470 -0.036124
0.415112 0.321330 -0.036124
0.486666 0.341653 -0.036124
0.560991 0.359377 -0.036124
0.632689 0.371261 -0.036124
0.700631 0.378595 -0.036124
0.764225 0.380850 -0.036124
0.821342 0.379002 -0.036124
0.874266 0.375844 -0.036124
0.917808 0.368434 -0.036124
0.947820 0.355664 -0.036124
0.092560 0.405425 -0.040856
0.108174 0.405425 -0.036124
0.207583 0.405425 -0.036124
0.266409 0.405425 -0.036124
0.322941 0.405425 -0.036124
0.378023 0.405425 -0.036124
0.432393 0.405425 -0.036124
0.486666 0.405425 -0.036124
0.560991 0.426176 -0.036124
0.632689 0.440050 -0.036124
0.700631 0.447309 -0.036124
0.764225 0.451580 -0.036124
0.821342 0.449258 -0.036124
0.874266 0.445857 -0.036124
0.917808 0.436775 -0.036124
0.947820 0.421813 -0.036124
0.092560 0.492846 -0.034303
0.108174 0.492846 -0.036124
0.211668 0.492846 -0.036124
0.273769 0.492846 -0.036124
0.333105 0.492846 -0.036124
0.389931 0.492846 -0.036124
0.447473 0.492846 -0.036124
0.504274 0.492846 -0.036124
0.560991 0.492846 -0.036124
0.632689 0.508740 -0.036124
0.700631 0.517825 -0.036124
0.764225 0.521229 -0.036124
0.821342 0.519351 -0.036124
0.874266 0.514758 -0.036124
0.917808 0.504924 -0.036124
0.947820 0.487862 -0.036124
0.092560 0.577238 -0.028310
0.108174 0.577238 -0.036124
0.214938 0.577238 -0.036124
0.278660 0.577238 -0.036124
0.339925 0.577238 -0.036124
0.399249 0.577238 -0.036124
0.457581 0.577238 -0.036124
0.516075 0.577238 -0.036124
0.574473 0.577238 -0.036124
0.632689 0.577238 -0.036124
0.700297 0.587807 -0.036124
0.764225 0.591634 -0.036124
0.821342 0.590325 -0.036124
0.874266 0.584522 -0.036124
0.917808 0.573036 -0.036124
0.947820 0.553745 -0.036124
0.092560 0.657144 -0.023681
0.108174 0.657144 -0.036124
0.217381 0.657144 -0.036124
0.281932 0.657144 -0.036124
0.343288 0.657144 -0.036124
0.404396 0.657144 -0.036124
0.463373 0.657144 -0.036124
0.522866 0.657144 -0.036124
0.582207 0.657144 -0.036124
0.641466 0.657144 -0.036124
0.700619 0.657144 -0.036124
0.764063 0.661951 -0.036124
0.821342 0.660187 -0.036124
0.874266 0.653266 -0.036124
0.917808 0.640972 -0.036124
0.947820 0.619620 -0.036124
0.092560 0.731610 -0.021435
0.108174 0.731610 -0.036124
0.217381 0.731610 -0.036124
0.282750 0.731610 -0.036124
0.345583 0.731610 -0.036124
0.405408 0.731610 -0.036124
0.465664 0.731610 -0.036124
0.525513 0.731610 -0.036124
0.585216 0.731610 -0.036124
0.644809 0.731610 -0.036124
0.704521 0.731610 -0.036124
0.764186 0.732525 -0.036124
0.821342 0.729135 -0.036124
0.874266 0.722957 -0.036124
0.917808 0.708928 -0.036124
0.947820 0.685431 -0.036124
0.092560 0.799856 -0.022146
0.108174 0.799856 -0.036124
0.217381 0.799856 -0.036124
0.282750 0.799856 -0.036124
0.344038 0.799856 -0.036124
0.404576 0.799856 -0.036124
0.464953 0.799856 -0.036124
0.524666 0.799856 -0.036124
0.584303 0.799856 -0.036124
0.643831 0.799856 -0.036124
0.702800 0.799856 -0.036124
0.763081 0.799856 -0.036124
0.822166 0.800813 -0.036124
0.874266 0.791566 -0.036124
0.917808 0.776712 -0.036124
0.947820 0.751213 -0.036124
0.092560 0.860806 -0.025334
0.108174 0.860806 -0.036124
0.216575 0.860806 -0.036124
0.281120 0.860806 -0.036124
0.342187 0.860806 -0.036124
0.402151 0.860806 -0.036124
0.461469 0.860806 -0.036124
0.520598 0.860806 -0.036124
0.579614 0.860806 -0.036124
0.638539 0.860806 -0.036124
0.697243 0.860806 -0.036124
0.756144 0.860806 -0.036124
0.814872 0.861055 -0.036124
0.874266 0.861111 -0.036124
0.917808 0.844732 -0.036124
0.947820 0.816969 -0.036124
0.092560 0.912510 -0.029888
0.108174 0.912510 -0.036124
0.214116 0.912510 -0.036124
0.277852 0.912510 -0.036124
0.337557 0.912510 -0.036124
0.396448 0.912510 -0.036124
0.455193 0.912510 -0.036124
0.513293 0.912510 -0.036124
0.571262 0.912510 -0.036124
0.629149 0.912510 -0.036124
0.686472 0.912510 -0.036124
0.745238 0.912510 -0.036124
0.801742 0.912510 -0.036124
0.860347 0.912406 -0.036124
0.917808 0.912510 -0.036124
0.947820 0.882635 -0.036124
0.092560 0.947818 -0.035859
0.108174 0.947818 -0.036124
0.210850 0.947818 -0.036124
0.272131 0.947818 -0.036124
0.330761 0.947818 -0.036124
0.387806 0.947818 -0.036124
0.444319 0.947818 -0.036124
0.500587 0.947818 -0.036124
0.556729 0.947818 -0.036124
0.612764 0.947818 -0.036124
0.668649 0.947818 -0.036124
0.724612 0.947818 -0.036124
0.780486 0.947818 -0.036124
0.836693 0.947818 -0.036124
0.892380 0.947818 -0.036124
0.947820 0.947818 -0.036124
0.092560 -0.073767 0.087011
0.100505 -0.073767 0.087011
0.173275 -0.073767 0.087011
0.225569 -0.073767 0.087912
0.283599 -0.073767 0.098313
0.348579 -0.073767 0.107775
0.415112 -0.073767 0.116478
0.486666 -0.073767 0.124118
0.560991 -0.073767 0.130692
0.632689 -0.073767 0.135038
0.700631 -0.073767 0.137053
0.764225 -0.073767 0.137763
0.821342 -0.073767 0.138563
0.874266 -0.073767 0.136592
0.917808 -0.073767 0.134023
0.947820 -0.073767 0.129330
0.092560 -0.060580 0.087011
0.108174 -0.039077 0.087011
0.173275 -0.039077 0.087011
0.225569 -0.039077 0.095182
0.283599 -0.039077 0.103454
0.348579 -0.039077 0.111423
0.415112 -0.039077 0.118899
0.486666 -0.039077 0.125052
0.560991 -0.039077 0.130404
0.632689 -0.039077 0.133975
0.700631 -0.039077 0.136763
0.764225 -0.039077 0.137606
0.821342 -0.039077 0.136754
0.874266 -0.039077 0.135634
0.917808 -0.039077 0.133118
0.947820 -0.039077 0.129284
0.092560 0.042337 0.087011
0.108174 0.042337 0.087011
0.172456 0.041568 0.086097
0.225569 0.042337 0.087011
0.283599 0.042337 0.087011
0.348579 0.042337 0.087011
0.415112 0.042337 0.087011
0.486666 0.042337 0.087011
0.560991 0.042337 0.087011
0.632689 0.042337 0.087011
0.700631 0.042337 0.087011
0.764225 0.042337 0.087011
0.821342 0.042337 0.087011
0.874266 0.042337 0.087011
0.917808 0.042337 0.087011
0.947820 0.042337 0.087011
0.092560 0.099728 0.088807
0.108174 0.099728 0.095655
0.172456 0.099728 0.086086
0.226373 0.099728 0.087481
0.283599 0.108329 0.087011
0.348579 0.117496 0.087011
0.415112 0.124666 0.087011
0.486666 0.131907 0.087011
0.560991 0.138363 0.087011
0.632689 0.142642 0.087011
0.700631 0.145089 0.087011
0.764225 0.145523 0.087011
0.821342 0.144770 0.087011
0.874266 0.143661 0.087011
0.917808 0.140924 0.087011
0.947820 0.135973 0.087011
0.092560 0.167755 0.098276
0.108174 0.167755 0.104263
0.172456 0.167755 0.086465
0.233728 0.167755 0.087009
0.284424 0.168515 0.087011
0.348579 0.181793 0.087011
0.415112 0.193499 0.087011
0.486666 0.204863 0.087011
0.560991 0.214920 0.087011
0.632689 0.221606 0.087011
0.700631 0.225495 0.087011
0.764225 0.226402 0.087011
0.821342 0.225624 0.087011
0.874266 0.223691 0.087011
0.917808 0.218898 0.087011
0.947820 0.211199 0.087011
0.092560 0.241805 0.107821
0.108174 0.241805 0.111985
0.172456 0.241805 0.086033
0.241083 0.241805 0.087468
0.295840 0.241905 0.087011
0.348579 0.243468 0.087011
0.415112 0.258241 0.087011
0.486666 0.273253 0.087011
0.560991 0.286501 0.087011
0.632689 0.295300 0.087011
0.700631 0.300909 0.087011
0.764225 0.303006 0.087011
0.821342 0.300404 0.087011
0.874266 0.297932 0.087011
0.917808 0.291752 0.087011
0.947820 0.281596 0.087011
0.092560 0.321330 0.116478
0.108174 0.321330 0.118899
0.172456 0.321330 0.086509
0.247618 0.321330 0.087109
0.305648 0.321330 0.087011
0.361675 0.321530 0.087011
0.415112 0.321330 0.087011
0.486666 0.339802 0.087011
0.560991 0.356102 0.087011
0.632689 0.366927 0.087011
0.700631 0.372429 0.087011
0.764225 0.375598 0.087011
0.821342 0.374141 0.087011
0.874266 0.370202 0.087011
0.917808 0.362601 0.087011
0.947820 0.350061 0.087011
0.092560 0.405425 0.124118
0.108174 0.405425 0.125052
0.172456 0.405425 0.085987
0.253336 0.405425 0.086907
0.315633 0.405425 0.087011
0.373906 0.405425 0.087011
0.430836 0.405425 0.087011
0.486666 0.405425 0.087011
0.560991 0.424740 0.087011
0.632689 0.437530 0.087011
0.700631 0.444918 0.087011
0.764225 0.448082 0.087011
0.821342 0.445834 0.087011
0.874266 0.440688 0.087011
0.917808 0.432393 0.087011
0.947820 0.417624 0.087011
0.092560 0.492846 0.130692
0.108174 0.492846 0.130404
0.172456 0.492846 0.086195
0.259053 0.492846 0.087717
0.324611 0.492846 0.087011
0.385401 0.492846 0.087011
0.444705 0.492846 0.087011
0.503086 0.492846 0.087011
0.560991 0.492846 0.087011
0.632689 0.507615 0.087011
0.700631 0.515915 0.087011
0.764225 0.519138 0.087011
0.821342 0.517022 0.087011
0.874266 0.512508 0.087011
0.917808 0.501622 0.087011
0.947820 0.484630 0.087011
0.092560 0.577238 0.135038
0.108174 0.577238 0.133975
0.172456 0.577238 0.086001
0.263140 0.577238 0.087660
0.330522 0.577238 0.087011
0.393017 0.577238 0.087011
0.453903 0.577238 0.087011
0.513945 0.577238 0.087011
0.573530 0.577238 0.087011
0.632689 0.577238 0.087011
0.700966 0.586861 0.087011
0.764225 0.589731 0.087011
0.821342 0.587834 0.087011
0.874266 0.582076 0.087011
0.917808 0.570541 0.087011
0.947820 0.551342 0.087011
0.092560 0.657144 0.137517
0.108174 0.657144 0.136015
0.172456 0.657144 0.086661
0.264769 0.657144 0.086969
0.334081 0.657144 0.087011
0.397488 0.657144 0.087011
0.459094 0.657144 0.087011
0.520058 0.657144 0.087011
0.580529 0.657144 0.087011
0.640713 0.657144 0.087011
0.700612 0.657144 0.087011
0.764083 0.660952 0.087011
0.821342 0.659240 0.087011
0.874266 0.652303 0.087011
0.917808 0.639132 0.087011
0.947820 0.617736 0.087011
0.092560 0.731610 0.138489
0.108174 0.731610 0.136809
0.172456 0.731610 0.086726
0.265590 0.731610 0.087764
0.334282 0.731610 0.087011
0.398028 0.731610 0.087011
0.460938 0.731610 0.087011
0.522226 0.731610 0.087011
0.583046 0.731610 0.087011
0.643579 0.731610 0.087011
0.704005 0.731610 0.087011
0.764481 0.732525 0.087011
0.821342 0.728786 0.087011
0.874266 0.721498 0.087011
0.917808 0.707622 0.087011
0.947820 0.684043 0.087011
0.092560 0.799856 0.138210
0.108174 0.799856 0.136572
0.172456 0.799856 0.086445
0.265590 0.799856 0.087530
0.334177 0.799856 0.087011
0.397741 0.799856 0.087011
0.459990 0.799856 0.087011
0.521104 0.799856 0.087011
0.581766 0.799856 0.087011
0.642125 0.799856 0.087011
0.702705 0.799856 0.087011
0.762279 0.799856 0.087011
0.822166 0.800031 0.087011
0.874266 0.791523 0.087011
0.917808 0.775978 0.087011
0.947820 0.750128 0.087011
0.092560 0.860806 0.136716
0.108174 0.860806 0.135333
0.172456 0.860806 0.086776
0.263951 0.860806 0.087200
0.332198 0.860806 0.087011
0.395159 0.860806 0.087011
0.456387 0.860806 0.087011
0.516900 0.860806 0.087011
0.576883 0.860806 0.087011
0.636585 0.860806 0.087011
0.696164 0.860806 0.087011
0.755024 0.860806 0.087011
0.814035 0.860723 0.087011
0.874266 0.860568 0.087011
0.917808 0.844396 0.087011
0.947820 0.816347 0.087011
0.092560 0.912510 0.134023
0.108174 0.912510 0.133118
0.172456 0.912510 0.086799
0.261507 0.912510 0.087711
0.328491 0.912510 0.087011
0.390299 0.912510 0.087011
0.450213 0.912510 0.087011
0.509549 0.912510 0.087011
0.568453 0.912510 0.087011
0.627006 0.912510 0.087011
0.685252 0.912510 0.087011
0.743839 0.912510 0.087011
0.801742 0.912510 0.087011
0.860347 0.913014 0.087011
0.917808 0.912510 0.087011
0.947820 0.882272 0.087011
0.092560 0.947818 0.129330
0.108174 0.947818 0.129284
0.172456 0.947818 0.086648
0.257425 0.947818 0.087504
0.321908 0.947818 0.087011
0.381011 0.947818 0.087011
0.439549 0.947818 0.087011
0.497024 0.947818 0.087011
0.553971 0.947818 0.087011
0.610685 0.947818 0.087011
0.667568 0.947818 0.087011
0.723462 0.947818 0.087011
0.780165 0.947818 0.087011
0.836693 0.947818 0.087011
0.892104 0.947818 0.087011
0.947820 0.947818 0.087011
0.092560 -0.073767 0.146272
0.100742 -0.073767 0.146272
0.174893 -0.073767 0.146272
0.226373 -0.073767 0.146272
0.283599 -0.073767 0.156858
0.348579 -0.073767 0.169670
0.415112 -0.073767 0.180458
0.486666 -0.073767 0.190583
0.560991 -0.073767 0.199400
0.632689 -0.073767 0.205307
0.700631 -0.073767 0.209402
0.764225 -0.073767 0.209848
0.821342 -0.073767 0.210288
0.874266 -0.073767 0.208433
0.917808 -0.073767 0.203933
0.947820 -0.073767 0.197539
0.092560 -0.060087 0.146272
0.108174 -0.039077 0.146272
0.180610 -0.039077 0.146272
0.226373 -0.039077 0.146272
0.283599 -0.039077 0.158809
0.348579 -0.039077 0.171939
0.415112 -0.039077 0.181514
0.486666 -0.039077 0.191011
0.560991 -0.039077 0.199260
0.632689 -0.039077 0.204774
0.700631 -0.039077 0.208352
0.764225 -0.039077 0.209309
0.821342 -0.039077 0.208924
0.874266 -0.039077 0.207535
0.917808 -0.039077 0.203468
0.947820 -0.039077 0.197541
0.092560 0.043876 0.146272
0.108174 0.049858 0.146272
0.172456 0.041553 0.146272
0.226373 0.042737 0.146272
0.283599 0.042337 0.154401
0.348579 0.042337 0.163057
0.415112 0.042337 0.169836
0.486666 0.042337 0.176699
0.560991 0.042337 0.182776
0.632689 0.042337 0.186830
0.700631 0.042337 0.189146
0.764225 0.042337 0.189551
0.821342 0.042337 0.188841
0.874266 0.042337 0.187801
0.917808 0.042337 0.185200
0.947820 0.042337 0.180525
0.092560 0.099728 0.146272
0.108174 0.099728 0.146272
0.172456 0.099728 0.146272
0.225569 0.098776 0.145362
0.283599 0.099728 0.146272
0.348579 0.099728 0.146272
0.415112 0.099728 0.146272
0.486666 0.099728 0.146272
0.560991 0.099728 0.146272
0.632689 0.099728 0.146272
0.700631 0.099728 0.146272
0.764225 0.099728 0.146272
0.821342 0.099728 0.146272
0.874266 0.099728 0.146272
0.917808 0.099728 0.146272
0.947820 0.099728 0.146272
0.092560 0.167755 0.157435
0.108174 0.167755 0.159202
0.172456 0.167755 0.154710
0.225569 0.167755 0.145572
0.284424 0.168373 0.146272
0.348579 0.175480 0.146272
0.415112 0.182772 0.146272
0.486666 0.189885 0.146272
0.560991 0.196371 0.146272
0.632689 0.200585 0.146272
0.700631 0.203093 0.146272
0.764225 0.203462 0.146272
0.821342 0.202223 0.146272
0.874266 0.200564 0.146272
0.917808 0.197424 0.146272
0.947820 0.191931 0.146272
0.092560 0.241805 0.169321
0.108174 0.241805 0.170927
0.172456 0.241805 0.162952
0.225569 0.241805 0.145510
0.290954 0.242509 0.146272
0.348579 0.243450 0.146272
0.415112 0.254039 0.146272
0.486666 0.265547 0.146272
0.560991 0.275931 0.146272
0.632689 0.282699 0.146272
0.700631 0.286498 0.146272
0.764225 0.287492 0.146272
0.821342 0.286314 0.146272
0.874266 0.283239 0.146272
0.917808 0.277646 0.146272
0.947820 0.268804 0.146272
