src/LUT/04_Vintage_LUTs_Magenta Shadows.cube
LUT_3D_SIZE 6
0.092560 -0.073767 -0.072604
0.225569 -0.073767 -0.072604
0.415112 -0.073767 -0.072604
0.632689 -0.073767 -0.072604
0.821342 -0.073767 -0.072604
0.947820 -0.073767 -0.072604
0.092560 0.099728 -0.072604
0.226373 0.099728 -0.072604
0.415112 0.135911 -0.072604
0.632689 0.162203 -0.072604
0.821342 0.167469 -0.072604
0.947820 0.153966 -0.072604
0.092560 0.321330 -0.072604
0.257425 0.321330 -0.072604
0.415112 0.321330 -0.072604
0.632689 0.371434 -0.072604
0.821342 0.380138 -0.072604
0.947820 0.355682 -0.072604
0.092560 0.577238 -0.072604
0.279475 0.577238 -0.072604
0.457697 0.577238 -0.072604
0.632689 0.577238 -0.072604
0.821342 0.589418 -0.072604
0.947820 0.553782 -0.072604
0.092560 0.799856 -0.072604
0.283569 0.799856 -0.072604
0.465171 0.799856 -0.072604
0.643924 0.799856 -0.072604
0.822166 0.799839 -0.072604
0.947820 0.751215 -0.072604
0.092560 0.947818 -0.072604
0.272131 0.947818 -0.072604
0.444331 0.947818 -0.072604
0.612787 0.947818 -0.072604
0.780487 0.947818 -0.072604
0.947820 0.947818 -0.072604
0.092560 -0.073767 0.146272
0.226373 -0.073767 0.146272
0.415112 -0.073767 0.180458
0.632689 -0.073767 0.205307
0.821342 -0.073767 0.210288
0.947820 -0.073767 0.197539
0.092560 0.099728 0.146272
0.225569 0.098776 0.145362
0.415112 0.099728 0.146272
0.632689 0.099728 0.146272
0.821342 0.099728 0.146272
0.947820 0.099728 0.146272
0.092560 0.321330 0.180458
0.225569 0.321330 0.145196
0.415112 0.321330 0.146272
0.632689 0.359162 0.146272
0.821342 0.363120 0.146272
0.947820 0.340886 0.146272
0.092560 0.577238 0.205307
0.225569 0.577238 0.145755
0.447279 0.577238 0.146272
0.632689 0.577238 0.146272
0.821342 0.583683 0.146272
0.947820 0.547277 0.146272
0.092560 0.799856 0.209633
0.225569 0.799856 0.145240
0.451179 0.799856 0.146272
0.639158 0.799856 0.146272
0.822166 0.800642 0.146272
0.947820 0.748712 0.146272
0.092560 0.947818 0.197539
0.225569 0.947818 0.145772
0.431741 0.947818 0.146272
0.607271 0.947818 0.146272
0.778113 0.947818 0.146272
0.947820 0.947818 0.146272
0.092560 -0.073767 0.355720
0.257425 -0.073767 0.355720
0.415112 -0.073767 0.355720
0.632689 -0.073767 0.403041
0.821342 -0.073767 0.411292
0.947820 -0.073767 0.388169
0.092560 0.135911 0.355720
0.225569 0.098582 0.355720
0.415112 0.099728 0.355720
0.632689 0.099728 0.391455
0.821342 0.099728 0.395166
0.947820 0.099728 0.374160
0.092560 0.321330 0.355720
0.225569 0.321330 0.355720
0.415112 0.321330 0.355720
0.632689 0.321330 0.355720
0.821342 0.321330 0.355720
0.947820 0.321330 0.355720
0.092560 0.577238 0.403041
0.225569 0.577238 0.391982
0.415112 0.577238 0.355720
0.632689 0.577238 0.355720
0.821342 0.571552 0.355720
0.947820 0.539098 0.355720
0.092560 0.799856 0.411318
0.225569 0.799856 0.395651
0.415112 0.799856 0.355720
0.627874 0.799856 0.355720
0.822166 0.800782 0.355720
0.947820 0.745466 0.355720
0.092560 0.947818 0.388169
0.225569 0.947818 0.374537
0.415112 0.947818 0.355720
0.600315 0.947818 0.355720
0.775719 0.947818 0.355720
0.947820 0.947818 0.355720
0.092560 -0.073767 0.597579
0.279475 -0.073767 0.597579
0.457697 -0.073767 0.597579
0.632689 -0.073767 0.597579
0.821342 -0.073767 0.609058
0.947820 -0.073767 0.575440
0.092560 0.162203 0.597579
0.225569 0.099182 0.597579
0.447279 0.099728 0.597579
0.632689 0.099728 0.597579
0.821342 0.099728 0.603671
0.947820 0.099728 0.569300
0.092560 0.371434 0.597579
0.225569 0.359760 0.597579
0.415112 0.321330 0.597579
0.632689 0.321330 0.597579
0.821342 0.321330 0.592182
0.947820 0.321330 0.561537
0.092560 0.577238 0.597579
0.225569 0.577238 0.597579
0.415112 0.577238 0.597579
0.632689 0.577238 0.597579
0.821342 0.577238 0.597579
0.947820 0.577238 0.597579
0.092560 0.799856 0.609999
0.225569 0.799856 0.605390
0.415112 0.799856 0.592188
0.632689 0.799856 0.597579
0.822166 0.800165 0.597579
0.947820 0.760460 0.597579
0.092560 0.947818 0.575440
0.225569 0.947818 0.569963
0.415112 0.947818 0.561537
0.632689 0.947818 0.597579
0.788527 0.947818 0.597579
0.947820 0.947818 0.597579
0.092560 -0.073767 0.807999
0.283569 -0.073767 0.807999
0.465171 -0.073767 0.807999
0.643924 -0.073767 0.807999
0.822166 -0.073767 0.807983
0.947820 -0.073767 0.761966
0.092560 0.166756 0.807999
0.225569 0.098638 0.807999
0.451179 0.099728 0.807999
0.639158 0.099728 0.807999
0.822166 0.099728 0.808707
0.947820 0.099728 0.759584
0.092560 0.380209 0.807999
0.225569 0.363581 0.807999
0.415112 0.321330 0.807999
0.627874 0.321330 0.807999
0.822166 0.321330 0.808864
0.947820 0.321330 0.756577
0.092560 0.590365 0.807999
0.225569 0.585485 0.807999
0.415112 0.571558 0.807999
0.632689 0.577238 0.807999
0.822166 0.577238 0.808286
0.947820 0.577238 0.770790
0.092560 0.799856 0.807999
0.225569 0.799856 0.807999
0.415112 0.799856 0.807999
0.632689 0.799856 0.807999
0.821342 0.798844 0.807031
0.947820 0.799856 0.807999
0.092560 0.947818 0.761966
0.225569 0.947818 0.759174
0.415112 0.947818 0.756577
0.632689 0.947818 0.770790
0.821679 0.947818 0.807031
0.947820 0.947818 0.807999
0.092560 -0.073767 0.947819
0.272131 -0.073767 0.947819
0.444331 -0.073767 0.947819
0.612787 -0.073767 0.947819
0.780487 -0.073767 0.947819
0.947820 -0.073767 0.947819
0.092560 0.153966 0.947819
0.225569 0.099196 0.947819
0.431741 0.099728 0.947819
0.607271 0.099728 0.947819
0.778113 0.099728 0.947819
0.947820 0.099728 0.947819
0.092560 0.355682 0.947819
0.225569 0.341257 0.947819
0.415112 0.321330 0.947819
0.600315 0.321330 0.947819
0.775719 0.321330 0.947819
0.947820 0.321330 0.947819
0.092560 0.553782 0.947819
0.225569 0.547992 0.947819
0.415112 0.539098 0.947819
0.632689 0.577238 0.947819
0.788527 0.577238 0.947819
0.947820 0.577238 0.947819
0.092560 0.751215 0.947819
0.225569 0.748210 0.947819
0.415112 0.745466 0.947819
0.632689 0.760460 0.947819
0.821679 0.798844 0.947819
0.947820 0.799856 0.947819
0.092560 0.947818 0.947819
0.225569 0.947818 0.947819
0.415112 0.947818 0.947819
0.632689 0.947818 0.947819
0.821342 0.947818 0.947819
0.947820 0.947818 0.947819
